icons/midnadark/mimetypes/16/text-x-qml.svg

<?xml version="1.0" encoding="UTF-8" standalone="no"?>
<!-- Created with Inkscape (http://www.inkscape.org/) -->

<svg
   xmlns:sketch="http://www.bohemiancoding.com/sketch/ns"
   xmlns:osb="http://www.openswatchbook.org/uri/2009/osb"
   xmlns:dc="http://purl.org/dc/elements/1.1/"
   xmlns:cc="http://creativecommons.org/ns#"
   xmlns:rdf="http://www.w3.org/1999/02/22-rdf-syntax-ns#"
   xmlns:svg="http://www.w3.org/2000/svg"
   xmlns="http://www.w3.org/2000/svg"
   xmlns:sodipodi="http://sodipodi.sourceforge.net/DTD/sodipodi-0.dtd"
   xmlns:inkscape="http://www.inkscape.org/namespaces/inkscape"
   width="16"
   height="16"
   id="svg2"
   version="1.1"
   inkscape:version="0.91 r13725"
   viewBox="0 0 16 16"
   sodipodi:docname="text-x-qml.svg">
  <defs
     id="defs4">
    <linearGradient
       osb:paint="gradient"
       id="linearGradient4207">
      <stop
         id="stop3371"
         offset="0"
         style="stop-color:#3498db;stop-opacity:1;" />
      <stop
         id="stop3373"
         offset="1"
         style="stop-color:#3498db;stop-opacity:0;" />
    </linearGradient>
  </defs>
  <sodipodi:namedview
     id="base"
     pagecolor="#9c9c9c"
     bordercolor="#666666"
     borderopacity="1.0"
     inkscape:pageopacity="0"
     inkscape:pageshadow="2"
     inkscape:zoom="11.2"
     inkscape:cx="-34.637095"
     inkscape:cy="12.111369"
     inkscape:document-units="px"
     inkscape:current-layer="g4447"
     showgrid="false"
     inkscape:showpageshadow="false"
     borderlayer="true"
     inkscape:window-width="1366"
     inkscape:window-height="687"
     inkscape:window-x="0"
     inkscape:window-y="0"
     inkscape:window-maximized="1"
     units="px"
     inkscape:snap-bbox="true"
     inkscape:object-nodes="true"
     showguides="false">
    <inkscape:grid
       type="xygrid"
       id="grid4101" />
    <sodipodi:guide
       position="2,14.000017"
       orientation="12,0"
       id="guide4071" />
    <sodipodi:guide
       position="2,2.0000174"
       orientation="0,12"
       id="guide4073" />
    <sodipodi:guide
       position="14,2.0000174"
       orientation="-12,0"
       id="guide4075" />
    <sodipodi:guide
       position="14,14.000017"
       orientation="0,-12"
       id="guide4077" />
  </sodipodi:namedview>
  <metadata
     id="metadata7">
    <rdf:RDF>
      <cc:Work
         rdf:about="">
        <dc:format>image/svg+xml</dc:format>
        <dc:type
           rdf:resource="http://purl.org/dc/dcmitype/StillImage" />
        <dc:title />
      </cc:Work>
    </rdf:RDF>
  </metadata>
  <g
     inkscape:label="Capa 1"
     inkscape:groupmode="layer"
     id="layer1"
     transform="translate(0,-1036.3622)">
    <g
       transform="translate(-412.88298,512.00351)"
       id="layer1-4"
       inkscape:label="Capa 1">
      <g
         style="fill:#ffffff;fill-opacity:1"
         inkscape:label="Capa 1"
         id="layer1-7"
         transform="translate(392.57143,-514.5642)" />
      <g
         transform="translate(341.79698,500.25245)"
         id="g4240">
        <g
           transform="translate(-392.98822,-511.27795)"
           id="layer1-1"
           inkscape:label="Capa 1"
           inkscape:transform-center-x="5.4653607"
           inkscape:transform-center-y="-9.4924686">
          <g
             transform="translate(442.54596,-504.4418)"
             id="layer1-99"
             inkscape:label="Capa 1">
            <g
               inkscape:label="Capa 1"
               id="layer1-69"
               transform="matrix(0.81522607,0,0,0.81522607,-328.41705,612.76049)">
              <g
                 transform="translate(392.57143,-514.5642)"
                 id="layer1-7-0"
                 inkscape:label="Capa 1"
                 style="fill:#ffffff;fill-opacity:1" />
              <g
                 id="g4240-2"
                 transform="translate(341.79698,500.25245)">
                <g
                   inkscape:transform-center-y="-9.4924686"
                   inkscape:transform-center-x="5.4653607"
                   inkscape:label="Capa 1"
                   id="layer1-1-9"
                   transform="translate(-392.98822,-511.27795)">
                  <g
                     id="layer1-3"
                     inkscape:label="Capa 1"
                     transform="translate(0.41988239,0.03484499)">
                    <g
                       inkscape:transform-center-y="-9.4924686"
                       inkscape:transform-center-x="5.4653607"
                       inkscape:label="Capa 1"
                       id="layer1-9"
                       transform="translate(-4.9074814,-7.6656037)">
                      <g
                         inkscape:label="Capa 1"
                         id="layer1-8"
                         transform="matrix(0.53861909,0,0,0.53861909,252.9433,261.18451)">
                        <g
                           id="g4447"
                           transform="matrix(0.65762761,0,0,0.65762761,163.45346,180.49688)">
                          <g
                             inkscape:label="Capa 1"
                             id="layer1-6"
                             transform="matrix(0.8975025,0,0,0.8975025,67.796897,76.127596)"
                             style="fill:#ffffff;fill-opacity:1">
                            <g
                               id="layer1-4-3"
                               inkscape:label="Capa 1"
                               transform="translate(-51.525445,5.4558218)"
                               style="fill:#ffffff;fill-opacity:1">
                              <g
                                 transform="translate(-34.965532,2.4832225)"
                                 inkscape:label="Capa 1"
                                 id="layer1-3-8"
                                 style="fill:#ffffff;fill-opacity:1" />
                            </g>
                            <g
                               id="g4403"
                               transform="translate(50.777056,-5.4014337)"
                               style="fill:#ffffff;fill-opacity:1">
                              <path
                                 style="opacity:1;fill:#ffffff;fill-opacity:1;stroke:none;stroke-width:0.2;stroke-linecap:round;stroke-linejoin:round;stroke-miterlimit:4;stroke-dasharray:none;stroke-opacity:1"
                                 d="M 0.56835938,1.9628906 C 0.25360354,1.9628906 0,2.2164942 0,2.53125 l 0,10.9375 c 0,0.314756 0.25360354,0.568359 0.56835938,0.568359 l 14.86328162,0 C 15.746396,14.037109 16,13.783506 16,13.46875 L 16,2.53125 C 16,2.2164942 15.746396,1.9628906 15.431641,1.9628906 l -14.86328162,0 z M 14.71875,2.6171875 A 0.64779112,0.64779112 0 0 1 15.367188,3.265625 0.64779112,0.64779112 0 0 1 14.71875,3.9140625 0.64779112,0.64779112 0 0 1 14.070312,3.265625 0.64779112,0.64779112 0 0 1 14.71875,2.6171875 Z m -1.591797,0.013672 A 0.64779112,0.64779112 0 0 1 13.775391,3.2792969 0.64779112,0.64779112 0 0 1 13.126953,3.9277344 0.64779112,0.64779112 0 0 1 12.478516,3.2792969 0.64779112,0.64779112 0 0 1 13.126953,2.6308594 Z M 11.5625,2.6464844 A 0.64779112,0.64779112 0 0 1 12.210938,3.2949219 0.64779112,0.64779112 0 0 1 11.5625,3.9433594 0.64779112,0.64779112 0 0 1 10.916016,3.2949219 0.64779112,0.64779112 0 0 1 11.5625,2.6464844 Z"
                                 transform="matrix(2.8939149,0,0,2.8939149,334.23404,507.44506)"
                                 id="rect4195"
                                 inkscape:connector-curvature="0" />
                              <g
                                 id="g4247"
                                 style="fill:#ffffff;fill-opacity:1"
                                 transform="matrix(0.83317883,0,0,0.83317883,65.74755,84.6955)" />
                            </g>
                          </g>
                          <g
                             style="fill:#818a93;fill-opacity:1"
                             transform="matrix(0.14062974,0,0,0.14062974,354.8895,527.22018)"
                             sketch:type="MSLayerGroup"
                             id="chevron18" />
                        </g>
                      </g>
                    </g>
                  </g>
                </g>
              </g>
            </g>
          </g>
        </g>
      </g>
    </g>
  </g>
</svg>

<svg xmlns="http://www.w3.org/2000/svg" viewBox="0 0 16 16"><path d="m.568 1.963c-.315 0-.568.254-.568.568v10.938c0 .315.254.568.568.568h14.863c.315 0 .568-.254.568-.568v-10.938c0-.315-.254-.568-.568-.568h-14.863m14.15039.654297a.647791 .647791 0 0 1 .648438 .648438 .647791 .647791 0 0 1 -.648438 .648438 .647791 .647791 0 0 1 -.648438 -.648438 .647791 .647791 0 0 1 .648438 -.648438m-1.591797.013672a.647791 .647791 0 0 1 .648438 .648437 .647791 .647791 0 0 1 -.648438 .648438 .647791 .647791 0 0 1 -.648437 -.648438 .647791 .647791 0 0 1 .648437 -.648438m-1.564453.015625a.647791 .647791 0 0 1 .648438 .648438 .647791 .647791 0 0 1 -.648438 .648438 .647791 .647791 0 0 1 -.646484 -.648438 .647791 .647791 0 0 1 .646484 -.648438" transform="matrix(.74999 0 0 .74999 1.989 2.01)" fill="#fff"/></svg>
